docs/assets/plusbtn.svg

<svg width="94" height="94" viewBox="0 0 94 94" fill="none" xmlns="http://www.w3.org/2000/svg">
<circle cx="47" cy="47" r="47" fill="#9948E6"/>
<path fill-rule="evenodd" clip-rule="evenodd" d="M47.9792 23.5C45.2753 23.5 43.0833 25.6919 43.0833 28.3958V43.0833H28.3958C25.6919 43.0833 23.5 45.2753 23.5 47.9792C23.5 50.6831 25.6919 52.875 28.3958 52.875H43.0833V65.6042C43.0833 68.3081 45.2753 70.5 47.9792 70.5C50.6831 70.5 52.875 68.3081 52.875 65.6042V52.875H65.6042C68.3081 52.875 70.5 50.6831 70.5 47.9792C70.5 45.2753 68.3081 43.0833 65.6042 43.0833H52.875V28.3958C52.875 25.6919 50.6831 23.5 47.9792 23.5Z" fill="white"/>
</svg>

<svg xmlns="http://www.w3.org/2000/svg" width="94" height="94" fill="none" xmlns:v="https://vecta.io/nano"><circle cx="47" cy="47" r="47" fill="#9948e6"/><path fill-rule="evenodd" d="M47.979 23.5c-2.704 0-4.896 2.192-4.896 4.896v14.688H28.396c-2.704 0-4.896 2.192-4.896 4.896s2.192 4.896 4.896 4.896h14.688v12.729c0 2.704 2.192 4.896 4.896 4.896s4.896-2.192 4.896-4.896V52.875h12.729c2.704 0 4.896-2.192 4.896-4.896s-2.192-4.896-4.896-4.896H52.875V28.396c0-2.704-2.192-4.896-4.896-4.896z" fill="#fff"/></svg>
